app/component-library/components/Icons/Icon/assets/scan-barcode.svg

<svg width="24" height="24" viewBox="0 0 24 24" fill="none" xmlns="http://www.w3.org/2000/svg">
<path d="M2.28125 9.75C1.87125 9.75 1.53125 9.41 1.53125 9V6.5C1.53125 3.6 3.89125 1.25 6.78125 1.25H9.28125C9.69125 1.25 10.0312 1.59 10.0312 2C10.0312 2.41 9.69125 2.75 9.28125 2.75H6.78125C4.71125 2.75 3.03125 4.43 3.03125 6.5V9C3.03125 9.41 2.69125 9.75 2.28125 9.75Z" fill="currentColor"/>
<path d="M22.2812 9.75C21.8713 9.75 21.5312 9.41 21.5312 9V6.5C21.5312 4.43 19.8512 2.75 17.7812 2.75H15.2812C14.8713 2.75 14.5312 2.41 14.5312 2C14.5312 1.59 14.8713 1.25 15.2812 1.25H17.7812C20.6713 1.25 23.0312 3.6 23.0312 6.5V9C23.0312 9.41 22.6912 9.75 22.2812 9.75Z" fill="currentColor"/>
<path d="M17.7812 22.75H16.2812C15.8713 22.75 15.5312 22.41 15.5312 22C15.5312 21.59 15.8713 21.25 16.2812 21.25H17.7812C19.8512 21.25 21.5312 19.57 21.5312 17.5V16C21.5312 15.59 21.8713 15.25 22.2812 15.25C22.6912 15.25 23.0312 15.59 23.0312 16V17.5C23.0312 20.4 20.6713 22.75 17.7812 22.75Z" fill="currentColor"/>
<path d="M9.28125 22.75H6.78125C3.89125 22.75 1.53125 20.4 1.53125 17.5V15C1.53125 14.59 1.87125 14.25 2.28125 14.25C2.69125 14.25 3.03125 14.59 3.03125 15V17.5C3.03125 19.57 4.71125 21.25 6.78125 21.25H9.28125C9.69125 21.25 10.0312 21.59 10.0312 22C10.0312 22.41 9.69125 22.75 9.28125 22.75Z" fill="currentColor"/>
<path d="M9.28125 5.25H7.28125C6.14125 5.25 5.53125 5.85 5.53125 7V9C5.53125 10.15 6.14125 10.75 7.28125 10.75H9.28125C10.4212 10.75 11.0312 10.15 11.0312 9V7C11.0312 5.85 10.4212 5.25 9.28125 5.25Z" fill="currentColor"/>
<path d="M17.2812 5.25H15.2812C14.1413 5.25 13.5312 5.85 13.5312 7V9C13.5312 10.15 14.1413 10.75 15.2812 10.75H17.2812C18.4212 10.75 19.0312 10.15 19.0312 9V7C19.0312 5.85 18.4212 5.25 17.2812 5.25Z" fill="currentColor"/>
<path d="M9.28125 13.25H7.28125C6.14125 13.25 5.53125 13.85 5.53125 15V17C5.53125 18.15 6.14125 18.75 7.28125 18.75H9.28125C10.4212 18.75 11.0312 18.15 11.0312 17V15C11.0312 13.85 10.4212 13.25 9.28125 13.25Z" fill="currentColor"/>
<path d="M17.2812 13.25H15.2812C14.1413 13.25 13.5312 13.85 13.5312 15V17C13.5312 18.15 14.1413 18.75 15.2812 18.75H17.2812C18.4212 18.75 19.0312 18.15 19.0312 17V15C19.0312 13.85 18.4212 13.25 17.2812 13.25Z" fill="currentColor"/>
</svg>

<svg xmlns="http://www.w3.org/2000/svg" width="24" height="24" viewBox="0 0 24 24" fill="none"><path fill="currentColor" d="M2.281 9.75c-.41 0-.75-.34-.75-.75V6.5c0-2.9 2.36-5.25 5.25-5.25h2.5c.41 0 .75.34.75.75s-.34.75-.75.75h-2.5c-2.07 0-3.75 1.68-3.75 3.75V9c0 .41-.34.75-.75.75ZM22.281 9.75c-.41 0-.75-.34-.75-.75V6.5c0-2.07-1.68-3.75-3.75-3.75h-2.5c-.41 0-.75-.34-.75-.75s.34-.75.75-.75h2.5c2.89 0 5.25 2.35 5.25 5.25V9c0 .41-.34.75-.75.75ZM17.781 22.75h-1.5c-.41 0-.75-.34-.75-.75s.34-.75.75-.75h1.5c2.07 0 3.75-1.68 3.75-3.75V16c0-.41.34-.75.75-.75s.75.34.75.75v1.5c0 2.9-2.36 5.25-5.25 5.25ZM9.281 22.75h-2.5c-2.89 0-5.25-2.35-5.25-5.25V15c0-.41.34-.75.75-.75s.75.34.75.75v2.5c0 2.07 1.68 3.75 3.75 3.75h2.5c.41 0 .75.34.75.75s-.34.75-.75.75Z"/><path fill="currentColor" d="M9.281 5.25h-2c-1.14 0-1.75.6-1.75 1.75v2c0 1.15.61 1.75 1.75 1.75h2c1.14 0 1.75-.6 1.75-1.75V7c0-1.15-.61-1.75-1.75-1.75ZM17.281 5.25h-2c-1.14 0-1.75.6-1.75 1.75v2c0 1.15.61 1.75 1.75 1.75h2c1.14 0 1.75-.6 1.75-1.75V7c0-1.15-.61-1.75-1.75-1.75ZM9.281 13.25h-2c-1.14 0-1.75.6-1.75 1.75v2c0 1.15.61 1.75 1.75 1.75h2c1.14 0 1.75-.6 1.75-1.75v-2c0-1.15-.61-1.75-1.75-1.75ZM17.281 13.25h-2c-1.14 0-1.75.6-1.75 1.75v2c0 1.15.61 1.75 1.75 1.75h2c1.14 0 1.75-.6 1.75-1.75v-2c0-1.15-.61-1.75-1.75-1.75Z"/></svg>
